X:1
T:Title
%%score { ( 1 3 ) | ( 2 4 ) }
L:1/8
Q:1/4=95
M:6/8
K:C
V:1 treble nm="Grand Piano"
V:3 treble 
V:2 bass 
V:4 bass 
V:1
 [EG][EG][EG] [EG] [Ec]2 | ABc [EG]3 | [EG][EG][EG] [EG] [Ge]2 | [^Fe][Fd][FA] [=Fd]3 | %4
w: J.~Lincoln~Hall * * * *||||
 [EG][EG][EG] [EG] [Ec]2 | [Ac][Ac][Ad] [^Ge]3 | dcA Gcc | B[Ec][Fd] [Ec]3 | .c6 | c3 z3 | .A6 | %11
w: |||||||
 G6 | .c6 | c3 z3 | .[^Fe]3 [CFA]2 d | d6 | .c6 | c3 z3 | .c6 | e6 | .e6 | f3 z3 | z EE Fed | %23
w: ||||||||||||
 c-[Ec-][Fc-] [Ec]3 |] %24
w: |
V:2
 [C,C][C,C][C,C] [C,C] [C,G,]2 | [F,A,F][F,A,F][F,A,F] [C,C]3 | [C,C][C,C][C,C] [C,C] [C,C]2 | %3
 [D,C][D,C][D,C] [G,B,]3 | [C,C][C,C][C,C] [C,C] [C,C]2 | [F,A,][F,A,][F,A,] [E,B,]3 | %6
 [F,A,F][F,A,F][F,CF] [G,CE][G,CE][G,CE] | [G,D][G,,G,][G,,G,] [C,G,]3 | %8
 [C,G,][C,G,][C,G,] [C,G,][C,G,][C,G,] | [C,G,][C,G,][C,G,] [C,C]3 | %10
 [F,CF][F,C][F,C] [F,C][F,A,F][F,A,F] | [C,C][C,C][C,C] [C,C]3 | %12
 [C,G,][C,G,][C,G,] [C,G,][C,G,][C,G,] | [C,G,][C,G,][C,G,] [C,C]2 [C,C] | %14
 z2[K:treble] d[K:bass] D,2 [D,C] | [G,B,F]6 | [C,G,][C,G,][C,G,] [C,G,][C,G,][C,G,] | %17
 [C,G,][C,G,][C,G,] [C,C]3 | [F,A,][F,A,][F,A,] [F,A,][F,A,][F,A,] | [E,B,][E,B,][E,B,] [E,B,]3 | %20
 [A,^CG][A,C][A,C] [A,C][A,CG][A,CG] | [D,D][D,D][D,D] [F,CF]3 | %22
 [G,CE][G,C][G,C] [G,B,][K:treble][G,B,F][G,B,F] | [C,C][C,G,][C,A,] [C,G,]3 |] %24
V:3
 x6 | x6 | x6 | x6 | x6 | x6 | x6 | x6 | EEE E[Ed][Ee] | EEE [EG]3 | z FF FBc | EEE E3 | %12
 EEE E[Ed][Ee] | EEE [EG]2 [Ge] | x6 | x6 | EEE E[Ed][Ee] | EEE [EG]3 | AAA A[Ac][Ad] | ^GGG G3 | %20
 z GG G_e=e | FFF A3 | .G6 | .E3 z3 |] %24
V:4
 x6 | x6 | x6 | x6 | x6 | x6 | x6 | x6 | x6 | x6 | x6 | x6 | x6 | x6 | %14
 [D,C]3[K:treble][K:bass] z3 | x6 | x6 | x6 | x6 | x6 | x6 | x6 | x4[K:treble] x2 | x6 |] %24

